public/assets/img/de.svg

<svg width="23" height="23" viewBox="0 0 23 23" fill="none" xmlns="http://www.w3.org/2000/svg">
<g clip-path="url(#clip0_2_382)">
<path d="M0.715302 15.5C2.34017 19.8791 6.55541 23 11.5 23C16.4446 23 20.6598 19.8791 22.2847 15.5L11.5 14.5L0.715302 15.5Z" fill="#FFDA44"/>
<path d="M11.5 0C6.55541 0 2.34017 3.12081 0.715302 7.50002L11.5 8.49998L22.2847 7.49998C20.6598 3.12081 16.4446 0 11.5 0Z" fill="black"/>
<path d="M0.715291 7.5C0.253045 8.74582 0 10.0933 0 11.5C0 12.9067 0.253045 14.2541 0.715291 15.5H22.2848C22.747 14.2541 23 12.9067 23 11.5C23 10.0933 22.747 8.74582 22.2847 7.5H0.715291Z" fill="#D80027"/>
</g>
<defs>
<clipPath id="clip0_2_382">
<rect width="23" height="23" fill="white"/>
</clipPath>
</defs>
</svg>

<svg width="23" height="23" fill="none" xmlns="http://www.w3.org/2000/svg"><g clip-path="url(#a)"><path d="M.715 15.5C2.34 19.88 6.555 23 11.5 23s9.16-3.12 10.785-7.5l-10.785-1-10.785 1Z" fill="#FFDA44"/><path d="M11.5 0C6.555 0 2.34 3.12.715 7.5l10.785 1 10.785-1C20.66 3.12 16.445 0 11.5 0Z" fill="#000"/><path d="M.715 7.5a11.475 11.475 0 0 0-.715 4c0 1.407.253 2.754.715 4h21.57c.462-1.246.715-2.593.715-4s-.253-2.754-.715-4H.715Z" fill="#D80027"/></g><defs><clipPath id="a"><path fill="#fff" d="M0 0h23v23H0z"/></clipPath></defs></svg>
